X:1
T:Title
%%score ( 1 2 ) ( 3 4 )
L:1/8
M:4/4
K:Bb
V:1 treble nm="Bright Piano"
V:2 treble 
V:3 bass nm="Bright Piano"
V:4 bass 
V:1
 z4[Q:1/4=94] z [DF][EG][EF] | [Dd]4 z2 F2 | [EG]3 [EG] [EB]2 [EG]2 | [DF]4 z2 [B,D]2 | %4
 [A,C]3 [B,D] [CE]2 [A,F]2 |[M:2/4] [B,D]4 | z [DF] [EG][EF] |[M:4/4] [Dd]4 z2 F2 | %8
 [EG]3 [EG] [EB]2 [EG]2 | [DF]4 z2 [B,D]2 | [A,C]3 [B,D] [CE]2 [A,F]2 |[M:2/4] [B,D]4 | z2 F2 | %13
[M:4/4] [DB]2 [EB]2 [FB]2 [DB]2 | [Cc]2 [GB]2 B2- [=EB]2 | [FA]4 z2 F2 | [Fc]2 [=Ec]2 [Fc]2 [Fc]2 | %17
 [Fd]2 [Gc]2 c2- [Ec]2 | [DB]4 z [DF][EG][EF] | [Dd]4 z2 F2 | z4 c4 |[M:2/4] [DB]4 |] %22
V:2
 x8 | x8 | x8 | x8 | x8 |[M:2/4] x4 | x4 |[M:4/4] x8 | x8 | x8 | x8 |[M:2/4] x4 | x4 |[M:4/4] x8 | %14
 z4 F2 z2 | x8 | x8 | z4 F2 z2 | x8 | x8 | [FA]4 C2 DE |[M:2/4] x4 |] %22
V:3
 z4 z B,[E,B,][F,A,] | [B,,F,]4 z2 [D,B,]2 | [E,B,]3 [E,B,] [G,B,]2 [E,B,]2 | %3
 [B,,B,]4 z2 [B,,F,]2 | F,3 [B,,F,] [A,,F,]2 [F,,F,]2 |[M:2/4] [B,,F,]4 | z B, [E,B,][F,A,] | %7
[M:4/4] [B,,F,]4 z2 [D,B,]2 | [E,B,]3 [E,B,] [G,B,]2 [E,B,]2 | [B,,B,]4 z2 [B,,F,]2 | %10
 F,3 [B,,F,] [A,,F,]2 [F,,F,]2 |[M:2/4] [B,,F,]4 | z2 F,2 | %13
[M:4/4] [B,,F,]2 [C,F,]2 [D,F,]2 [B,,F,]2 | [E,G,]2 [=E,C]2 D2 _D2 | [F,C]4 z2 [F,A,]2 | %16
 [F,A,]2 [G,B,]2 [A,C]2 [F,A,]2 | B,2 [=E,B,]2 [F,A,]4 | [B,,B,]4 z B,[E,B,][F,A,] | %19
 [B,,F,]4 z2 [D,B,]2 | C2 B,2 [F,A,]4 |[M:2/4] [B,,F,]4 |] %22
V:4
 x8 | x8 | x8 | x8 | x8 |[M:2/4] x4 | x4 |[M:4/4] x8 | x8 | x8 | x8 |[M:2/4] x4 | x4 |[M:4/4] x8 | %14
 z4 F,4 | x8 | x8 | x8 | x8 | x8 | F,4 z4 |[M:2/4] x4 |] %22

